Simply-Red-Circles/scalable/actions/atmosphere.svg

<svg xmlns="http://www.w3.org/2000/svg" width="24" height="24"><defs><style id="current-color-scheme"></style></defs><path d="M12 5a7 7 0 0 0-7 7 7 7 0 0 0 7 7 7 7 0 0 0 7-7 7 7 0 0 0-7-7zm0 2c.17 0 .33.02.5.04h.04a5 5 0 0 1 .3.04 6.6 6.6 0 0 1 1.1.33l.37.19v.03c.03.01.05.07.1.1l.03.03c.03.01.07.03.06.06 0 .04-.07.03-.1.06.01.06-.04.05-.06.1.01.02.06.03.07.06 0 .03-.08.02-.07.06.06.04.1 0 .16 0 .11-.02.21-.01.28-.06 0-.06.1-.05.1-.1l.09.06-.03.04c-.02 0-.05.01-.06.03l-.1.06c-.02.01-.07.1-.1.1l-.09-.04c-.03.01-.02.05-.06.06-.06.03-.2-.03-.22.07.03.05.14.03.19.06.03.02.09.09.1.12v.2c-.04.07-.13.06-.22.05h-.07c-.15 0-.3-.08-.37.04 0 .08.02.14 0 .21-.02.06-.1.11-.1.16 0 .02.06.06.07.1v.06c.02.05.08-.01.12 0 .05 0 .1.07.1.12 0 .03-.01.1-.04.12-.04.07-.12.06-.18.1-.06.03-.07.1-.1.15-.03.06-.07.08-.06.16a.37.37 0 0 1-.19.19c-.02.01-.07.01-.1.03l-.05.1-.1.09-.03.1c-.02.03-.06.04-.1.09l-.02.09c-.04.06-.07.1-.07.16 0 .04.06.05.07.09 0 .02-.04.04-.04.06 0 .04.03.07.04.1 0 .07-.05.1-.07.15v.06c0 .04-.06.08-.06.13 0 .03.06.05.06.1l-.03.09c.01.05.12.11.16.15.06.06.13.1.15.16.03.05.03.15.07.19.03.02.09.03.12.06l.1.06c.06.05.15.16.25.16.05-.01.1-.06.15-.07l.19-.03c.05.01.1.04.16.03.05 0 .1 0 .15-.03.1-.04.26-.11.4-.1.12.03.12.15.2.2.08 0 .15-.02.21 0 .06.01.13.08.13.12 0 .04-.06.1-.06.13-.02.05 0 .12 0 .15l-.03.1c0 .02.03.09.06.12l.12.13c.08.08.1.17.16.28v.1c-.02.16-.08.27-.19.46-.05.06-.12.11-.12.19 0 .18.1.3.1.47-.03.23 0 .25 0 .37.07.04.01.17 0 .25-.04.1-.08.13-.1.2h.19a5 5 0 0 1-.01 0l-.09.08c-.21.22-.46.42-.71.6a5 5 0 0 1-.07.04c-.2.13-.4.25-.62.35a5 5 0 0 1-.31.14c-.17.07-.35.12-.52.17a5 5 0 0 1-.93.16 7.62 7.62 0 0 1-.91-.02 5 5 0 0 1-.59-.1c-.23-.06-.46-.16-.68-.24-.01-.02-.04-.04-.03-.06.05-.03.15.07.18 0 .02-.04-.02-.13 0-.16s.12-.03.16-.03l.16-.03c.03-.03.06-.1.06-.16 0-.03-.04-.04-.06-.06-.02-.03 0-.04 0-.06-.03-.04-.09-.05-.1-.1.07-.01.18.06.28.03.05-.01.14-.1.16-.15v-.06l.03-.07v-.03c.02-.05.07-.09.1-.12l.09-.1.03-.06c.01-.1-.05-.17-.03-.25.02-.09.16-.15.25-.19l.1-.03.18-.06c.1-.04.11-.1.16-.19l.06-.12v-.07-.09l.03-.19c0-.04-.03-.06-.03-.1 0-.12.04-.1.1-.18l.05-.12c.09-.12.23-.17.22-.35 0-.06-.05-.2-.09-.22l-.1-.03c-.11-.04-.21-.17-.34-.18h-.06c-.05 0-.1-.03-.16-.04h-.12c-.03-.01-.04-.07-.06-.09l-.1-.03c-.05-.02-.07-.06-.12-.06h-.06l-.1-.04c-.03-.02-.08-.03-.1-.06.04-.1-.06-.12-.09-.18v-.13c0-.04-.05-.06-.09-.1a.37.37 0 0 0-.22-.09h-.15a.35.35 0 0 1-.2-.1c-.03-.04-.05-.1-.09-.12l-.09-.06c-.01 0-.02 0-.03-.03-.02-.04-.05-.05-.03-.1-.04-.01-.02.04-.06.04-.04-.06-.07-.11-.16-.1-.04.01-.08.1-.13.1-.04 0-.07-.09-.12-.1-.04 0-.1.04-.13.04-.04-.01-.05-.04-.09-.07-.03-.02-.08-.06-.1-.06-.04 0-.08.1-.15.06-.03-.04.07-.05.03-.1-.03-.02-.04.03-.06.04-.03.02-.06.02-.1.03l-.18.06a.19.19 0 0 0-.1.1c-.02.04-.06.12-.09.12-.04 0-.06-.04-.1-.06-.1-.05-.18.03-.28.03-.08 0-.22-.13-.21-.22l.03-.18c0-.06.06-.12.06-.16 0-.06-.12-.09-.16-.1-.09-.01-.2.05-.3 0-.03-.03.01-.05.02-.09v-.06c.01-.03.08-.06.1-.1v-.09c0-.03.06-.07.06-.1s-.04-.06-.06-.09c-.09.01-.14.01-.2.04-.1.05-.07.18-.18.22a1 1 0 0 1-.12.03H7.1a5 5 0 0 1 0-.06l.02-.04a5 5 0 0 1 .32-.93h.03c.04 0 .06.06.1.06.08 0 .1-.09.18-.13h.19c.05.01.12.06.15.06.04 0 .04-.03.07-.03.03.01.09.06.09.1 0 .04-.04.1-.03.15.05.05.15.07.22.1.04-.04 0-.1 0-.16v-.1l-.03-.09c0-.14.12-.2.21-.25.05-.02.1-.07.13-.1.05-.02.08 0 .13-.02l.18-.16c.03-.06 0-.15 0-.22h.1c.04 0 .06-.06.09-.1.01 0 .04 0 .06-.02.05-.04.06-.08.1-.1a.28.28 0 0 1 .06-.03l.12-.03.13-.03v-.1c.02-.1.18-.11.28-.15.07-.03.14-.1.22-.1-.02.06-.08.07-.06.13.01.1.12-.02.15-.03l.25-.1c.07-.02.2-.04.13-.12-.06 0-.08.04-.13.06-.03.01-.03-.03-.06-.03s-.04.04-.06.03c-.03 0-.06-.06-.06-.1-.02-.08.05-.09.09-.15-.02-.07-.12-.03-.19-.06 0-.04.04-.08.1-.1.04 0 .16.02.18.04.02.01-.02.04 0 .06.03.02.06.01.1 0 0-.06-.08-.02-.07-.06.07-.05.2-.02.29-.03a.7.7 0 0 0 .15-.06c.04-.03.05-.07.1-.04 0 .05-.01.08-.04.1-.07.07-.16.14-.21.22.03.03.09.02.15.03h.19c.04 0 .05.1.1.1.06 0 .03-.09 0-.13 0-.05.04-.1.02-.13-.03-.06-.15.02-.15-.06 0-.05.04-.06.06-.1 0-.1.07-.1.06-.18 0-.04-.04-.03-.06-.06l-.03-.1c-.05-.04-.15 0-.16-.1v-.15c0-.05-.05-.2-.1-.22-.05 0-.08.1-.15.13a.37.37 0 0 1-.15.03c-.03-.01-.06-.02-.07-.06 0-.05.05-.07.07-.1V7.2l.07-.02a5 5 0 0 1 .32-.07h.04A4.85 4.85 0 0 1 12 7zm-2.03.47c-.03.19-.2.26-.4.25-.05.05-.01.13-.04.19-.02.05-.1.1-.15.1-.04 0-.1-.06-.1-.1 0-.04.07-.04.03-.1l.03-.02.07-.04.56-.28zm4.19.19l-.04.03-.09.06c-.04.02-.09.03-.1.07 0 .03.04.03.04.06l-.03.1c.05.08.15-.03.22-.04.02 0 .04 0 .06-.03.02-.03.02-.06.03-.1.01-.04.07-.05.06-.09 0-.04-.1-.07-.15-.06zm-5.47.63c.04.03.11.12.03.15a.54.54 0 0 1-.16.03l-.03-.03.16-.15zm.19.18c.02 0 .03.06.06.07.02 0 .04-.04.06-.04.04.02.07.1.03.13-.03 0-.04-.04-.06-.03-.07.01-.1.16-.16.15-.05 0-.08-.12-.03-.15v-.06c.02-.02.06-.07.1-.07zm-.26.03h.04c-.01.06-.03.07-.07.1-.07.04-.13.1-.15.19 0 .02-.1.1-.13.09-.08-.02.05-.17.06-.19l.07-.06.06-.1a.25.25 0 0 1 .13-.03zm6.79.16c.08-.01.12.08.15.13.03.03.11.1.16.12.03.02.06.05.1.06.06.03.18.13.18.19 0 .03-.04.06-.03.1.05 0 .1-.08.1-.13l.24.4c.04.07.1.13.13.2-.05 0-.06.01-.07.06 0 .05.03.14-.06.15-.05.01-.11-.04-.18-.06h-.1c-.05-.02-.05-.1-.1-.13a.5.5 0 0 0-.15-.06h-.06c-.04 0-.1.02-.13 0a.32.32 0 0 1-.09-.1c-.01-.03.1-.05.1-.09l-.04-.09v-.06c0-.03-.05-.03-.1-.03h-.58a.62.62 0 0 0-.2.06l-.05.03a.45.45 0 0 1-.07.03c-.02.01-.06.06-.1.06h-.15c-.05 0-.12-.03-.12-.09 0-.1.16-.05.25-.06l.1-.06.02-.04c.03-.02.1-.07.1-.09V9.1c0-.02.03-.04.06-.06.04-.05.07-.1.12-.13.04-.02.08-.03.1-.06v-.06a.13.13 0 0 1 .06-.03c.05-.02.1 0 .16 0h.09l.06-.07a.25.25 0 0 1 .1-.03zm.56.6h-.13c-.04 0-.1-.03-.12 0 .04.05.1.07.19.09a.2.2 0 0 0 .06-.1zm-6.85-.57h.16c-.01.07-.17.06-.22.03 0-.02.03-.02.06-.03zm-.21.13c-.05.03-.1.07-.16.09-.04.01-.09.01-.1-.03 0-.05.07-.03.1-.03.04-.01.1-.03.16-.03zm6.5 0c-.04 0-.05.08 0 .09.02-.01.03-.05.03-.1h-.03zm-.07.15v.16c.04.06.11.01.13-.03.02-.1-.02-.14-.06-.13-.02.01-.05-.01-.07 0zm-8.28 2.35c.06.05.1.12.16.15a.5.5 0 0 0 .1.03h.05l.16.07c.07.02.13.12.19.15v.1a.3.3 0 0 0 .1.09l.12.1c.01 0 .03-.02.06 0 .07.01.1.1.16.09.03-.01.02-.06.03-.1.02-.02.05-.06.1-.06s.06.1.09.16c0 .03.05.06.06.1v.27c-.02.05-.09.05-.13.1-.02.02-.01.07-.03.09l-.06.06a.45.45 0 0 0-.03.07c-.03.06-.09.1-.06.18 0 .03.06.06.06.1 0 .04-.09.07-.1.12 0 .04.02.08.04.13 0 .03.07.07.09.09l.1.16c.06.1.09.21.15.3.03.06.1.08.12.13v.1c.04.08.2.18.29.22.03.02.09 0 .12.03.05.03.16.1.19.15.02.05.02.16.03.22v.25c0 .05.03.08.03.13v.38c0 .02.03.03.03.06l-.03.09c0 .06.05.1.06.16.01.04.04.16.03.21l-.03.1v.11a5 5 0 0 1-.11-.06 5.2 5.2 0 0 1-.73-.61l-.1-.1c-.18-.19-.35-.4-.5-.62a4.81 4.81 0 0 1-.47-.87c0-.03-.02-.05-.03-.07a5.02 5.02 0 0 1-.3-2.56zm1.94.53c.05-.02.04.05 0 .06-.04.01-.04-.04 0-.06z" fill="currentColor" color="#a02c2c"/></svg>

<?xml version="1.0" encoding="UTF-8" standalone="no"?>
<svg
   xmlns:dc="http://purl.org/dc/elements/1.1/"
   xmlns:cc="http://creativecommons.org/ns#"
   xmlns:rdf="http://www.w3.org/1999/02/22-rdf-syntax-ns#"
   xmlns:svg="http://www.w3.org/2000/svg"
   xmlns="http://www.w3.org/2000/svg"
   xmlns:sodipodi="http://sodipodi.sourceforge.net/DTD/sodipodi-0.dtd"
   xmlns:inkscape="http://www.inkscape.org/namespaces/inkscape"
   width="24"
   height="24"
   version="1.1"
   id="svg7"
   sodipodi:docname="atmosphere.svg"
   inkscape:version="0.92.4 (5da689c313, 2019-01-14)">
  <metadata
     id="metadata11">
    <rdf:RDF>
      <cc:Work
         rdf:about="">
        <dc:format>image/svg+xml</dc:format>
        <dc:type
           rdf:resource="http://purl.org/dc/dcmitype/StillImage" />
        <dc:title></dc:title>
      </cc:Work>
    </rdf:RDF>
  </metadata>
  <sodipodi:namedview
     pagecolor="#ffffff"
     bordercolor="#666666"
     borderopacity="1"
     objecttolerance="10"
     gridtolerance="10"
     guidetolerance="10"
     inkscape:pageopacity="0"
     inkscape:pageshadow="2"
     inkscape:window-width="1078"
     inkscape:window-height="480"
     id="namedview9"
     showgrid="false"
     inkscape:zoom="9.8333333"
     inkscape:cx="-0.81355932"
     inkscape:cy="12"
     inkscape:window-x="0"
     inkscape:window-y="28"
     inkscape:window-maximized="0"
     inkscape:current-layer="svg7" />
  <defs
     id="defs3">
    <style
       id="current-color-scheme" />
  </defs>
  <path
     d="m 12,5 a 7,7 0 0 0 -7,7 7,7 0 0 0 7,7 7,7 0 0 0 7,-7 7,7 0 0 0 -7,-7 z m 0,2 c 0.17,0 0.33,0.02 0.5,0.04 h 0.04 a 5,5 0 0 1 0.3,0.04 6.6,6.6 0 0 1 1.1,0.33 l 0.37,0.19 v 0.03 c 0.03,0.01 0.05,0.07 0.1,0.1 l 0.03,0.03 c 0.03,0.01 0.07,0.03 0.06,0.06 0,0.04 -0.07,0.03 -0.1,0.06 0.01,0.06 -0.04,0.05 -0.06,0.1 0.01,0.02 0.06,0.03 0.07,0.06 0,0.03 -0.08,0.02 -0.07,0.06 0.06,0.04 0.1,0 0.16,0 0.11,-0.02 0.21,-0.01 0.28,-0.06 0,-0.06 0.1,-0.05 0.1,-0.1 L 14.97,8 14.94,8.04 c -0.02,0 -0.05,0.01 -0.06,0.03 l -0.1,0.06 c -0.02,0.01 -0.07,0.1 -0.1,0.1 L 14.59,8.19 c -0.03,0.01 -0.02,0.05 -0.06,0.06 -0.06,0.03 -0.2,-0.03 -0.22,0.07 0.03,0.05 0.14,0.03 0.19,0.06 0.03,0.02 0.09,0.09 0.1,0.12 v 0.2 c -0.04,0.07 -0.13,0.06 -0.22,0.05 h -0.07 c -0.15,0 -0.3,-0.08 -0.37,0.04 0,0.08 0.02,0.14 0,0.21 -0.02,0.06 -0.1,0.11 -0.1,0.16 0,0.02 0.06,0.06 0.07,0.1 v 0.06 c 0.02,0.05 0.08,-0.01 0.12,0 0.05,0 0.1,0.07 0.1,0.12 0,0.03 -0.01,0.1 -0.04,0.12 -0.04,0.07 -0.12,0.06 -0.18,0.1 -0.06,0.03 -0.07,0.1 -0.1,0.15 -0.03,0.06 -0.07,0.08 -0.06,0.16 a 0.37,0.37 0 0 1 -0.19,0.19 c -0.02,0.01 -0.07,0.01 -0.1,0.03 l -0.05,0.1 -0.1,0.09 -0.03,0.1 c -0.02,0.03 -0.06,0.04 -0.1,0.09 l -0.02,0.09 c -0.04,0.06 -0.07,0.1 -0.07,0.16 0,0.04 0.06,0.05 0.07,0.09 0,0.02 -0.04,0.04 -0.04,0.06 0,0.04 0.03,0.07 0.04,0.1 0,0.07 -0.05,0.1 -0.07,0.15 v 0.06 c 0,0.04 -0.06,0.08 -0.06,0.13 0,0.03 0.06,0.05 0.06,0.1 l -0.03,0.09 c 0.01,0.05 0.12,0.11 0.16,0.15 0.06,0.06 0.13,0.1 0.15,0.16 0.03,0.05 0.03,0.15 0.07,0.19 0.03,0.02 0.09,0.03 0.12,0.06 l 0.1,0.06 c 0.06,0.05 0.15,0.16 0.25,0.16 0.05,-0.01 0.1,-0.06 0.15,-0.07 l 0.19,-0.03 c 0.05,0.01 0.1,0.04 0.16,0.03 0.05,0 0.1,0 0.15,-0.03 0.1,-0.04 0.26,-0.11 0.4,-0.1 0.12,0.03 0.12,0.15 0.2,0.2 0.08,0 0.15,-0.02 0.21,0 0.06,0.01 0.13,0.08 0.13,0.12 0,0.04 -0.06,0.1 -0.06,0.13 -0.02,0.05 0,0.12 0,0.15 l -0.03,0.1 c 0,0.02 0.03,0.09 0.06,0.12 l 0.12,0.13 c 0.08,0.08 0.1,0.17 0.16,0.28 v 0.1 c -0.02,0.16 -0.08,0.27 -0.19,0.46 -0.05,0.06 -0.12,0.11 -0.12,0.19 0,0.18 0.1,0.3 0.1,0.47 -0.03,0.23 0,0.25 0,0.37 0.07,0.04 0.01,0.17 0,0.25 -0.04,0.1 -0.08,0.13 -0.1,0.2 h 0.19 a 5,5 0 0 1 -0.01,0 l -0.09,0.08 c -0.21,0.22 -0.46,0.42 -0.71,0.6 a 5,5 0 0 1 -0.07,0.04 c -0.2,0.13 -0.4,0.25 -0.62,0.35 a 5,5 0 0 1 -0.31,0.14 c -0.17,0.07 -0.35,0.12 -0.52,0.17 a 5,5 0 0 1 -0.93,0.16 7.62,7.62 0 0 1 -0.91,-0.02 5,5 0 0 1 -0.59,-0.1 c -0.23,-0.06 -0.46,-0.16 -0.68,-0.24 -0.01,-0.02 -0.04,-0.04 -0.03,-0.06 0.05,-0.03 0.15,0.07 0.18,0 0.02,-0.04 -0.02,-0.13 0,-0.16 0.02,-0.03 0.12,-0.03 0.16,-0.03 l 0.16,-0.03 c 0.03,-0.03 0.06,-0.1 0.06,-0.16 0,-0.03 -0.04,-0.04 -0.06,-0.06 -0.02,-0.03 0,-0.04 0,-0.06 -0.03,-0.04 -0.09,-0.05 -0.1,-0.1 0.07,-0.01 0.18,0.06 0.28,0.03 0.05,-0.01 0.14,-0.1 0.16,-0.15 v -0.06 l 0.03,-0.07 v -0.03 c 0.02,-0.05 0.07,-0.09 0.1,-0.12 l 0.09,-0.1 0.03,-0.06 c 0.01,-0.1 -0.05,-0.17 -0.03,-0.25 0.02,-0.09 0.16,-0.15 0.25,-0.19 l 0.1,-0.03 0.18,-0.06 c 0.1,-0.04 0.11,-0.1 0.16,-0.19 l 0.06,-0.12 V 14.5 14.41 L 12,14.22 c 0,-0.04 -0.03,-0.06 -0.03,-0.1 0,-0.12 0.04,-0.1 0.1,-0.18 l 0.05,-0.12 c 0.09,-0.12 0.23,-0.17 0.22,-0.35 0,-0.06 -0.05,-0.2 -0.09,-0.22 l -0.1,-0.03 c -0.11,-0.04 -0.21,-0.17 -0.34,-0.18 h -0.06 c -0.05,0 -0.1,-0.03 -0.16,-0.04 h -0.12 c -0.03,-0.01 -0.04,-0.07 -0.06,-0.09 l -0.1,-0.03 c -0.05,-0.02 -0.07,-0.06 -0.12,-0.06 h -0.06 l -0.1,-0.04 C 11,12.76 10.95,12.75 10.93,12.72 10.97,12.62 10.87,12.6 10.84,12.54 v -0.13 c 0,-0.04 -0.05,-0.06 -0.09,-0.1 a 0.37,0.37 0 0 0 -0.22,-0.09 h -0.15 a 0.35,0.35 0 0 1 -0.2,-0.1 C 10.15,12.08 10.13,12.02 10.09,12 L 10,11.94 c -0.01,0 -0.02,0 -0.03,-0.03 C 9.95,11.87 9.92,11.86 9.94,11.81 9.9,11.8 9.92,11.85 9.88,11.85 9.84,11.79 9.81,11.74 9.72,11.75 c -0.04,0.01 -0.08,0.1 -0.13,0.1 -0.04,0 -0.07,-0.09 -0.12,-0.1 -0.04,0 -0.1,0.04 -0.13,0.04 C 9.3,11.78 9.29,11.75 9.25,11.72 9.22,11.7 9.17,11.66 9.15,11.66 9.11,11.66 9.07,11.76 9,11.72 8.97,11.68 9.07,11.67 9.03,11.62 9,11.6 8.99,11.65 8.97,11.66 8.94,11.68 8.91,11.68 8.87,11.69 l -0.18,0.06 a 0.19,0.19 0 0 0 -0.1,0.1 C 8.57,11.89 8.53,11.97 8.5,11.97 8.46,11.97 8.44,11.93 8.4,11.91 8.3,11.86 8.22,11.94 8.12,11.94 8.04,11.94 7.9,11.81 7.91,11.72 L 7.94,11.54 C 7.94,11.48 8,11.42 8,11.38 8,11.32 7.88,11.29 7.84,11.28 c -0.09,-0.01 -0.2,0.05 -0.3,0 -0.03,-0.03 0.01,-0.05 0.02,-0.09 v -0.06 c 0.01,-0.03 0.08,-0.06 0.1,-0.1 v -0.09 c 0,-0.03 0.06,-0.07 0.06,-0.1 0,-0.03 -0.04,-0.06 -0.06,-0.09 -0.09,0.01 -0.14,0.01 -0.2,0.04 -0.1,0.05 -0.07,0.18 -0.18,0.22 A 1,1 0 0 1 7.16,11.04 H 7.1 a 5,5 0 0 1 0,-0.06 l 0.02,-0.04 a 5,5 0 0 1 0.32,-0.93 h 0.03 c 0.04,0 0.06,0.06 0.1,0.06 0.08,0 0.1,-0.09 0.18,-0.13 H 7.94 C 7.99,9.95 8.06,10 8.09,10 8.13,10 8.13,9.97 8.16,9.97 c 0.03,0.01 0.09,0.06 0.09,0.1 0,0.04 -0.04,0.1 -0.03,0.15 0.05,0.05 0.15,0.07 0.22,0.1 0.04,-0.04 0,-0.1 0,-0.16 v -0.1 L 8.41,9.97 C 8.41,9.83 8.53,9.77 8.62,9.72 8.67,9.7 8.72,9.65 8.75,9.62 8.8,9.6 8.83,9.62 8.88,9.6 L 9.06,9.44 c 0.03,-0.06 0,-0.15 0,-0.22 h 0.1 c 0.04,0 0.06,-0.06 0.09,-0.1 0.01,0 0.04,0 0.06,-0.02 C 9.36,9.06 9.37,9.02 9.41,9 A 0.28,0.28 0 0 1 9.47,8.97 L 9.59,8.94 9.72,8.91 V 8.81 C 9.74,8.71 9.9,8.7 10,8.66 c 0.07,-0.03 0.14,-0.1 0.22,-0.1 -0.02,0.06 -0.08,0.07 -0.06,0.13 0.01,0.1 0.12,-0.02 0.15,-0.03 l 0.25,-0.1 c 0.07,-0.02 0.2,-0.04 0.13,-0.12 -0.06,0 -0.08,0.04 -0.13,0.06 C 10.53,8.51 10.53,8.47 10.5,8.47 10.47,8.47 10.46,8.51 10.44,8.5 10.41,8.5 10.38,8.44 10.38,8.4 10.36,8.32 10.43,8.31 10.47,8.25 10.45,8.18 10.35,8.22 10.28,8.19 c 0,-0.04 0.04,-0.08 0.1,-0.1 0.04,0 0.16,0.02 0.18,0.04 0.02,0.01 -0.02,0.04 0,0.06 0.03,0.02 0.06,0.01 0.1,0 0,-0.06 -0.08,-0.02 -0.07,-0.06 0.07,-0.05 0.2,-0.02 0.29,-0.03 a 0.7,0.7 0 0 0 0.15,-0.06 c 0.04,-0.03 0.05,-0.07 0.1,-0.04 0,0.05 -0.01,0.08 -0.04,0.1 -0.07,0.07 -0.16,0.14 -0.21,0.22 0.03,0.03 0.09,0.02 0.15,0.03 h 0.19 c 0.04,0 0.05,0.1 0.1,0.1 0.06,0 0.03,-0.09 0,-0.13 0,-0.05 0.04,-0.1 0.02,-0.13 -0.03,-0.06 -0.15,0.02 -0.15,-0.06 0,-0.05 0.04,-0.06 0.06,-0.1 0,-0.1 0.07,-0.1 0.06,-0.18 0,-0.04 -0.04,-0.03 -0.06,-0.06 l -0.03,-0.1 c -0.05,-0.04 -0.15,0 -0.16,-0.1 V 7.44 c 0,-0.05 -0.05,-0.2 -0.1,-0.22 -0.05,0 -0.08,0.1 -0.15,0.13 A 0.37,0.37 0 0 1 10.66,7.38 C 10.63,7.37 10.6,7.36 10.59,7.32 c 0,-0.05 0.05,-0.07 0.07,-0.1 V 7.2 l 0.07,-0.02 a 5,5 0 0 1 0.32,-0.07 h 0.04 A 4.85,4.85 0 0 1 12,7 Z M 9.97,7.47 C 9.94,7.66 9.77,7.73 9.57,7.72 9.52,7.77 9.56,7.85 9.53,7.91 9.51,7.96 9.43,8.01 9.38,8.01 9.34,8.01 9.28,7.95 9.28,7.91 9.28,7.87 9.35,7.87 9.31,7.81 L 9.34,7.79 9.41,7.75 Z m 4.19,0.19 -0.04,0.03 -0.09,0.06 c -0.04,0.02 -0.09,0.03 -0.1,0.07 0,0.03 0.04,0.03 0.04,0.06 l -0.03,0.1 c 0.05,0.08 0.15,-0.03 0.22,-0.04 0.02,0 0.04,0 0.06,-0.03 0.02,-0.03 0.02,-0.06 0.03,-0.1 0.01,-0.04 0.07,-0.05 0.06,-0.09 0,-0.04 -0.1,-0.07 -0.15,-0.06 z M 8.69,8.29 C 8.73,8.32 8.8,8.41 8.72,8.44 A 0.54,0.54 0 0 1 8.56,8.47 L 8.53,8.44 Z M 8.88,8.47 C 8.9,8.47 8.91,8.53 8.94,8.54 8.96,8.54 8.98,8.5 9,8.5 9.04,8.52 9.07,8.6 9.03,8.63 9,8.63 8.99,8.59 8.97,8.6 8.9,8.61 8.87,8.76 8.81,8.75 8.76,8.75 8.73,8.63 8.78,8.6 V 8.54 C 8.8,8.52 8.84,8.47 8.88,8.47 Z M 8.62,8.5 H 8.66 C 8.65,8.56 8.63,8.57 8.59,8.6 8.52,8.64 8.46,8.7 8.44,8.79 8.44,8.81 8.34,8.89 8.31,8.88 8.23,8.86 8.36,8.71 8.37,8.69 L 8.44,8.63 8.5,8.53 A 0.25,0.25 0 0 1 8.63,8.5 Z m 6.79,0.16 c 0.08,-0.01 0.12,0.08 0.15,0.13 0.03,0.03 0.11,0.1 0.16,0.12 0.03,0.02 0.06,0.05 0.1,0.06 C 15.88,9 16,9.1 16,9.16 c 0,0.03 -0.04,0.06 -0.03,0.1 0.05,0 0.1,-0.08 0.1,-0.13 l 0.24,0.4 c 0.04,0.07 0.1,0.13 0.13,0.2 -0.05,0 -0.06,0.01 -0.07,0.06 0,0.05 0.03,0.14 -0.06,0.15 C 16.26,9.95 16.2,9.9 16.13,9.88 h -0.1 C 15.98,9.86 15.98,9.78 15.93,9.75 A 0.5,0.5 0 0 0 15.78,9.69 h -0.06 c -0.04,0 -0.1,0.02 -0.13,0 A 0.32,0.32 0 0 1 15.5,9.59 C 15.49,9.56 15.6,9.54 15.6,9.5 L 15.56,9.41 V 9.35 c 0,-0.03 -0.05,-0.03 -0.1,-0.03 h -0.58 a 0.62,0.62 0 0 0 -0.2,0.06 L 14.63,9.41 A 0.45,0.45 0 0 1 14.56,9.44 C 14.54,9.45 14.5,9.5 14.46,9.5 h -0.15 c -0.05,0 -0.12,-0.03 -0.12,-0.09 0,-0.1 0.16,-0.05 0.25,-0.06 l 0.1,-0.06 0.02,-0.04 c 0.03,-0.02 0.1,-0.07 0.1,-0.09 V 9.1 c 0,-0.02 0.03,-0.04 0.06,-0.06 0.04,-0.05 0.07,-0.1 0.12,-0.13 0.04,-0.02 0.08,-0.03 0.1,-0.06 V 8.79 A 0.13,0.13 0 0 1 15,8.76 c 0.05,-0.02 0.1,0 0.16,0 h 0.09 l 0.06,-0.07 a 0.25,0.25 0 0 1 0.1,-0.03 z m 0.56,0.6 h -0.13 c -0.04,0 -0.1,-0.03 -0.12,0 0.04,0.05 0.1,0.07 0.19,0.09 a 0.2,0.2 0 0 0 0.06,-0.1 z M 9.12,8.69 H 9.28 C 9.27,8.76 9.11,8.75 9.06,8.72 9.06,8.7 9.09,8.7 9.12,8.69 Z M 8.91,8.82 C 8.86,8.85 8.81,8.89 8.75,8.91 8.71,8.92 8.66,8.92 8.65,8.88 8.65,8.83 8.72,8.85 8.75,8.85 8.79,8.84 8.85,8.82 8.91,8.82 Z m 6.5,0 c -0.04,0 -0.05,0.08 0,0.09 0.02,-0.01 0.03,-0.05 0.03,-0.1 H 15.41 Z M 15.34,8.97 V 9.13 C 15.38,9.19 15.45,9.14 15.47,9.1 15.49,9 15.45,8.96 15.41,8.97 c -0.02,0.01 -0.05,-0.01 -0.07,0 z m -8.28,2.35 c 0.06,0.05 0.1,0.12 0.16,0.15 a 0.5,0.5 0 0 0 0.1,0.03 h 0.05 l 0.16,0.07 c 0.07,0.02 0.13,0.12 0.19,0.15 v 0.1 a 0.3,0.3 0 0 0 0.1,0.09 l 0.12,0.1 c 0.01,0 0.03,-0.02 0.06,0 0.07,0.01 0.1,0.1 0.16,0.09 0.03,-0.01 0.02,-0.06 0.03,-0.1 0.02,-0.02 0.05,-0.06 0.1,-0.06 0.05,0 0.06,0.1 0.09,0.16 0,0.03 0.05,0.06 0.06,0.1 v 0.27 c -0.02,0.05 -0.09,0.05 -0.13,0.1 -0.02,0.02 -0.01,0.07 -0.03,0.09 l -0.06,0.06 a 0.45,0.45 0 0 0 -0.03,0.07 c -0.03,0.06 -0.09,0.1 -0.06,0.18 0,0.03 0.06,0.06 0.06,0.1 0,0.04 -0.09,0.07 -0.1,0.12 0,0.04 0.02,0.08 0.04,0.13 0,0.03 0.07,0.07 0.09,0.09 l 0.1,0.16 c 0.06,0.1 0.09,0.21 0.15,0.3 0.03,0.06 0.1,0.08 0.12,0.13 v 0.1 c 0.04,0.08 0.2,0.18 0.29,0.22 0.03,0.02 0.09,0 0.12,0.03 0.05,0.03 0.16,0.1 0.19,0.15 0.02,0.05 0.02,0.16 0.03,0.22 v 0.25 c 0,0.05 0.03,0.08 0.03,0.13 v 0.38 c 0,0.02 0.03,0.03 0.03,0.06 l -0.03,0.09 c 0,0.06 0.05,0.1 0.06,0.16 0.01,0.04 0.04,0.16 0.03,0.21 l -0.03,0.1 v 0.11 A 5,5 0 0 1 9.2,16.15 5.2,5.2 0 0 1 8.47,15.54 l -0.1,-0.1 C 8.19,15.25 8.02,15.04 7.87,14.82 A 4.81,4.81 0 0 1 7.4,13.95 C 7.4,13.92 7.38,13.9 7.37,13.88 A 5.02,5.02 0 0 1 7.07,11.32 Z M 9,11.85 c 0.05,-0.02 0.04,0.05 0,0.06 -0.04,0.01 -0.04,-0.04 0,-0.06 z"
     id="path5"
     inkscape:connector-curvature="0"
     style="color:#a02c2c;fill:currentColor" />
</svg>
